icons/op-cart-24.svg

<svg width="24" height="24" viewBox="0 0 24 24" fill="none" xmlns="http://www.w3.org/2000/svg">
<path fill-rule="evenodd" clip-rule="evenodd" d="M2 2.75C2 2.33579 2.33579 2 2.75 2H4.75C5.10751 2 5.41532 2.25234 5.48544 2.60291L6.26485 6.75H21.25C21.481 6.75 21.699 6.8564 21.8412 7.03844C21.9833 7.22048 22.0336 7.45785 21.9776 7.6819L19.9776 16.6819C19.8941 17.0158 19.5942 17.25 19.25 17.25H7.25C6.89249 17.25 6.58468 16.9977 6.51456 16.6471L4.13515 3.5H2.75C2.33579 3.5 2 3.16421 2 2.75ZM6.56485 8.25L7.86485 15.75H18.6644L20.2894 8.25H6.56485Z" fill="#636C76"/>
<path d="M9.75 20.5C9.75 21.3284 9.07843 22 8.25 22C7.42157 22 6.75 21.3284 6.75 20.5C6.75 19.6716 7.42157 19 8.25 19C9.07843 19 9.75 19.6716 9.75 20.5Z" fill="#636C76"/>
<path d="M18.25 22C19.0784 22 19.75 21.3284 19.75 20.5C19.75 19.6716 19.0784 19 18.25 19C17.4216 19 16.75 19.6716 16.75 20.5C16.75 21.3284 17.4216 22 18.25 22Z" fill="#636C76"/>
</svg>

<svg xmlns="http://www.w3.org/2000/svg" width="24" height="24" viewBox="0 0 24 24"><path d="M2 2.75A.75.75 0 0 1 2.75 2h2c.358 0 .665.252.735.603l.78 4.147H21.25a.75.75 0 0 1 .728.932l-2 9a.75.75 0 0 1-.728.568h-12a.749.749 0 0 1-.735-.603L4.135 3.5H2.75A.75.75 0 0 1 2 2.75Zm4.565 5.5 1.3 7.5h10.799l1.625-7.5ZM9.75 20.5a1.5 1.5 0 1 1-3.001-.001 1.5 1.5 0 0 1 3.001.001Zm8.5 1.5a1.5 1.5 0 1 0-.001-3.001A1.5 1.5 0 0 0 18.25 22Z"/></svg>
